static/images/mobile/copyright/wikipedia-wordmark-th.svg

<?xml version="1.0" encoding="UTF-8"?>
<svg width="120px" height="31px" viewBox="0 0 120 31" version="1.1" xmlns="http://www.w3.org/2000/svg" xmlns:xlink="http://www.w3.org/1999/xlink">
    <title>wikipedia-wordmark-th</title>
    <g id="Page-1" stroke="none" stroke-width="1" fill="none" fill-rule="evenodd">
        <path d="M73.6252906,13.5274142 L73.6252906,24.5024862 C73.7677562,24.4455121 74.0205705,24.4295621 74.3909932,24.4295621 C75.2742927,24.4295505 76.0247712,24.750708 76.6516393,25.377575 C77.3069898,26.0044536 77.6361142,26.7628872 77.6361142,27.6746831 C77.6361142,28.5864789 77.3069875,29.3449359 76.6516393,29.9717911 C76.0247735,30.5986464 75.2742939,30.919804 74.3909932,30.919804 C73.4221999,30.919804 72.6033899,30.5906889 71.948037,29.9353291 C71.3522586,29.3395474 71.0260981,28.602093 70.9717199,27.7236671 L70.9635621,27.4559109 L70.9635621,13.5274142 L73.6252906,13.5274142 Z M109.716618,10.4373382 C110.704645,10.4373382 111.553682,10.7387863 112.245318,11.3645284 C112.936942,11.9573772 113.29893,12.7366081 113.298944,13.7246489 C113.29893,14.6139019 112.955364,15.383935 112.329608,16.0426245 C111.703853,16.7013273 110.906172,17.0541182 109.885198,17.0541047 C109.35823,17.0541182 108.889618,16.9659171 108.494413,16.8012346 C108.741416,17.974539 109.270516,18.5777242 110.095547,18.6485391 L110.264503,18.655615 L113.762539,18.655615 L113.762539,21.1000255 L110.264503,21.1000255 C109.737535,21.1000255 109.329491,21.3132591 109.000153,21.7743457 C108.71197,22.1778083 108.5409,22.6474885 108.502635,23.1557488 L108.494413,23.375856 L108.494413,25.6516865 C108.494413,27.4301655 109.90946,28.3068221 112.708913,28.3068221 C115.440144,28.3068091 116.82283,27.4916647 116.918121,25.8387881 L116.923414,25.6516865 L116.923414,10.8166433 L120,10.8166433 L120,25.5252515 C120,29.1151297 117.58325,30.9198127 112.708913,30.9198127 C107.98558,30.9198127 105.538746,29.2020894 105.422198,25.7847393 L105.417827,25.5252515 L105.417827,23.249421 C105.417827,21.6685449 106.090448,20.5786817 107.440787,19.9199653 C105.925779,18.8990041 105.164957,17.386558 105.164957,15.4104493 C105.164957,13.9613353 105.596724,12.7924553 106.387162,11.8702685 C107.210534,10.915175 108.300411,10.4373382 109.716618,10.4373382 Z M7.53305602,10.4646035 L7.79655792,10.4563323 L7.79655792,10.4563323 L8.33522075,10.4646035 C10.5080417,10.4646151 12.2324112,10.8483707 13.5492915,11.7043126 C15.0505062,12.6738812 15.838367,14.1447206 15.9134,16.095853 L15.9193236,16.4079149 L15.9193236,26.9089804 C15.9193236,28.0612389 15.5461846,29.0322958 14.7890006,29.789481 C14.0317874,30.5137511 13.137211,30.883342 12.0178861,30.883342 C10.9643807,30.883342 10.0439635,30.5137628 9.31969564,29.789481 C8.59540915,29.0651992 8.26228851,28.1847782 8.26229668,27.1642146 C8.26228851,26.1107244 8.59541031,25.26323 9.31969564,24.5389482 C10.0439623,23.8146781 10.9643807,23.4086135 12.0178861,23.4086252 C12.2351622,23.4086112 12.4237717,23.4230215 12.5896755,23.441659 L12.8929749,23.4815493 L12.8929749,16.2256047 C12.8929609,14.1186242 11.3640046,13.0534195 8.33522075,13.0534078 C7.08418914,13.0534195 6.01544087,13.4665431 5.12656184,14.2566549 C4.33173378,14.9597663 3.88120371,15.89093 3.82089751,17.0483526 L3.81392865,17.3194657 L0.896966012,17.3194657 C0.995728533,15.1466552 1.65843211,13.43644 2.97530189,12.2512431 C4.15636373,11.1854199 5.69338836,10.5948517 7.53305602,10.4646035 Z M47.7142164,13.199256 C48.6829969,13.199256 49.4938448,13.5283827 50.1207106,14.1837308 C50.7164838,14.7795125 51.0426457,15.5169766 51.0970268,16.3953955 L51.1051855,16.6631491 L51.1051855,23.0075428 C51.1051773,23.748393 50.9366375,25.2493453 50.594717,27.5288349 L51.4084572,24.2327862 C51.4976065,23.8882614 51.5638862,23.6450895 51.607848,23.5016872 L51.652116,23.3721632 L54.6420027,14.2566549 L56.2827942,14.2566549 L59.292939,23.4398031 C59.3893192,23.7792434 59.7293248,25.1258703 60.3300798,27.5288349 L60.1652254,26.3946836 C59.9504255,24.8612309 59.8365258,23.7811317 59.8213596,23.1461735 L59.8196114,13.5274142 L62.4813398,13.5274142 L62.4813398,30.5916457 L59.4914531,30.5916457 L55.4441674,17.3194657 L51.3239577,30.5916457 L48.4434571,30.5916457 L48.4434571,19.5801117 L48.0467792,19.6561832 C47.9250183,19.6764065 47.8139433,19.6895037 47.7142164,19.6894978 C46.8024112,19.6895095 46.0439718,19.3683519 45.4171083,18.741485 C44.7902449,18.0861251 44.4690955,17.2832603 44.4690955,16.3714528 C44.4690955,15.4881499 44.7902484,14.7376854 45.4171083,14.1108068 C46.0439683,13.4839515 46.8024159,13.199256 47.7142164,13.199256 Z M89.7184784,13.199256 L89.9574053,13.1907462 L89.9574053,13.1907462 L90.4477191,13.199256 C92.4137823,13.1992676 94.0069736,13.7049056 95.2607075,14.7306613 C96.5211197,15.776562 97.1854114,17.1746977 97.2592021,18.950934 L97.2661193,19.2884155 L97.2661193,30.5916457 L94.6408529,30.5916457 L94.6408529,19.1425673 C94.6408401,18.0598025 94.2274516,17.1647033 93.4011438,16.4808389 C92.603309,15.7969979 91.6318916,15.4599137 90.5206432,15.459902 C89.3238997,15.4599137 88.2682113,15.8733056 87.3849083,16.6996111 C86.5016019,17.4974471 86.072274,18.4403728 86.0722751,19.5801117 C86.0722693,20.2924573 86.3091523,21.3322145 86.7650538,22.6429225 C87.2494399,23.9536188 87.4942921,24.940999 87.4942944,25.5963472 C87.4942898,25.7958208 87.4418941,26.0565855 87.3849083,26.3985119 C88.2112243,25.059311 89.166707,23.9193387 90.1924849,23.0075428 C89.3946501,22.9505687 88.7523559,22.6294111 88.2964592,22.05953 C87.8690471,21.5751275 87.6766011,20.985236 87.6766046,20.2728904 C87.6766011,19.5320519 87.9373846,18.8817792 88.4787693,18.3404026 C89.0486388,17.7705331 89.7148451,17.5017875 90.4841811,17.5017758 C91.2535009,17.5017875 91.9117427,17.7705331 92.4531309,18.3404026 C92.9945017,18.8817792 93.2552875,19.5320519 93.2552956,20.2728904 C93.2552851,21.5551055 92.6129875,22.9717925 91.3592699,24.5389482 L90.5235162,25.5778252 C89.3122677,27.1019282 88.6306101,28.05085 88.4423073,28.4039237 C88.0683207,29.0521676 87.8463156,29.6955697 87.7966602,30.3235074 L87.7859907,30.5916457 L85.0878002,30.5916457 C85.1162873,29.5373737 85.1242611,28.5579744 85.1242623,27.6746831 C85.1242576,26.1360203 84.955719,24.964183 84.6137938,24.1378659 C84.3573485,23.397039 84.1045353,22.6465512 83.8480911,21.8772198 C83.5916423,21.0793955 83.4834708,20.3607959 83.4834708,19.7624219 C83.4834708,17.8248586 84.1496771,16.2475986 85.4888826,15.0223576 C86.685619,13.9502922 88.0854297,13.3332729 89.7184784,13.199256 Z M30.9700609,13.1839827 C33.0216004,13.1839827 34.6314954,13.7396291 35.7997507,14.8508752 C36.9964731,15.9336401 37.5948565,17.4153171 37.5948565,19.2958946 L37.5948565,30.5794178 L34.9449382,30.5794178 L34.9449382,19.2531552 C34.9449266,18.0849117 34.5887549,17.1588811 33.8764222,16.4750167 C33.1640684,15.7911756 32.2237761,15.4492493 31.0555419,15.4492376 C29.3459113,15.4492493 28.0494474,16.1758413 27.1661456,17.6290138 C28.5053465,17.8854614 29.4598864,18.5265748 30.0297675,19.5523422 C28.5765811,20.4071523 27.8499913,21.4329314 27.849996,22.6296678 L27.849996,30.5794178 L25.2000778,30.5794178 L25.2000778,22.4586988 C25.2000755,21.2619624 25.7841961,20.3216736 26.9524431,19.6378209 C26.2400963,19.1534301 25.3710375,18.9824728 24.3452654,19.1249372 C24.4022512,17.3583196 25.0861016,15.9051588 26.3968142,14.7653849 C27.5935472,13.7111246 29.1179612,13.1839827 30.9700609,13.1839827 Z M74.3909932,26.2162017 C73.9920753,26.2162017 73.6549887,26.3688056 73.3700563,26.6537461 C73.0851192,26.9386867 72.9325119,27.2757709 72.9325119,27.6746831 C72.9325119,28.0735835 73.0851157,28.4106794 73.3700563,28.69562 C73.6549922,28.9805489 73.9920764,29.1331644 74.3909932,29.1331644 C74.7898996,29.1331644 75.1269861,28.9805489 75.4119302,28.69562 C75.6968649,28.4106794 75.8494746,28.0735835 75.8494746,27.6746831 C75.8494746,27.2757709 75.6968614,26.9386867 75.4119302,26.6537461 C75.1269896,26.3688056 74.7899007,26.2162017 74.3909932,26.2162017 Z M12.0178861,25.450499 C11.556971,25.450499 11.1073819,25.6317474 10.778177,25.9609675 C10.4489511,26.2901992 10.3041705,26.6668725 10.3041705,27.1277526 C10.3041705,27.5886443 10.4489487,28.0017796 10.778177,28.3309997 C11.1073842,28.6601964 11.556971,28.8050061 12.0178861,28.8050061 C12.4787778,28.8050061 12.8554417,28.6602081 13.1846711,28.3309997 C13.513876,28.0017679 13.6586776,27.5886677 13.6586776,27.1277526 C13.6586776,26.6668491 13.513876,26.2901876 13.1846711,25.9609675 C12.8554417,25.6317591 12.4787778,25.450499 12.0178861,25.450499 Z M90.4841811,18.9967192 C90.1137525,18.9967192 89.7926066,19.1413772 89.5361683,19.3978016 C89.30821,19.6257564 89.20801,19.9024711 89.20801,20.2728904 C89.20801,20.6433096 89.3082135,20.9644555 89.5361683,21.2209032 C89.7926031,21.448858 90.1137572,21.5490615 90.4841811,21.5490615 C90.8545899,21.5490615 91.1313128,21.448858 91.3592699,21.2209032 C91.6157059,20.9644555 91.7603523,20.6433096 91.7603523,20.2728904 C91.7603523,19.9553881 91.6540815,19.7067301 91.462231,19.4986128 L91.3592699,19.3978016 C91.1313128,19.1413772 90.8545946,18.9967192 90.4841811,18.9967192 Z M47.7142164,14.9858956 C47.3152984,14.9858956 46.9782166,15.1385111 46.6932795,15.42344 C46.4083424,15.7083922 46.2557351,16.0454764 46.2557351,16.4443769 C46.2557351,16.843289 46.4083424,17.1803849 46.6932795,17.4653138 C46.9782166,17.7502544 47.3153031,17.9028582 47.7142164,17.9028582 C48.1131227,17.9028582 48.4502139,17.7502544 48.7351533,17.4653138 C49.0200869,17.1803849 49.1726977,16.843289 49.1726977,16.4443769 C49.1726977,16.0454764 49.0200881,15.7083922 48.7351533,15.42344 C48.4502128,15.1385111 48.1131274,14.9858956 47.7142164,14.9858956 Z M109.885198,12.2074286 C109.424111,12.2074286 109.0437,12.332488 108.747283,12.6288787 C108.450865,12.9253098 108.283687,13.3057208 108.283687,13.766794 C108.283687,14.2278806 108.450865,14.6083185 108.747283,14.9047092 C109.0437,15.2011403 109.424111,15.3683043 109.885198,15.3683043 C110.346284,15.3683043 110.726682,15.2011403 111.023113,14.9047092 C111.319517,14.6083185 111.444563,14.2278806 111.444563,13.766794 C111.444563,13.3057208 111.319517,12.9253098 111.023113,12.6288787 C110.726682,12.332488 110.346284,12.2074286 109.885198,12.2074286 Z M59.8411969,2.88506274 L62.3935392,2.88506274 L62.3935392,10.7608619 L62.5029253,11.3442544 C58.9697053,10.2045154 55.7388903,9.63055051 52.8040245,9.63053885 C51.464833,9.63055051 50.0879939,9.71481573 48.7202768,9.88577308 C49.0622195,6.06762066 51.1371391,4.16125723 54.9552845,4.16123389 C56.8519071,4.16125577 58.4097657,4.65871435 59.6066414,5.63652554 L59.8411969,5.83848741 L59.8411969,2.88506274 Z M97.2150724,2.88050061 L97.2150724,10.7562997 L97.2879965,11.3396923 L97.2879965,11.3396923 C93.7547765,10.1999533 90.5239627,9.62598838 87.5890957,9.62597672 C86.2499065,9.62598838 84.9095272,9.7102536 83.54181,9.88121095 C83.8837492,6.06305853 85.9586711,4.1566951 89.7768177,4.15667176 C91.6734425,4.15669364 93.1992484,4.65415222 94.3921214,5.63196341 L94.6262681,5.83392528 L94.6262681,2.88050061 L97.2150724,2.88050061 Z M30.0887613,4.15667176 C32.2827875,4.15667176 34.0206216,4.82290603 35.3028321,6.16208358 C36.585053,7.47281491 37.3435006,9.20267877 37.5999401,11.3396923 C34.066719,10.1999533 30.8359063,9.62598838 27.9010394,9.62597672 C26.5618478,9.62598838 25.2214708,9.7102536 23.8537537,9.88121095 C24.1956952,6.06305853 26.2706148,4.15667176 30.0887613,4.15667176 Z M55.3199048,5.87494945 C54.2941362,5.87494945 53.3990277,6.10388434 52.6581764,6.53126604 C51.9173554,6.93020152 51.4356283,7.45177777 51.2361571,8.13559549 C51.7205643,8.02164726 52.5075059,7.9897707 53.5332652,7.98974736 C55.6418161,7.9897707 57.7167333,8.2585163 59.7682728,8.82837412 C59.5973143,8.11605184 59.0552248,7.44984091 58.2004054,6.8229623 C57.3455977,6.1961187 56.4026778,5.87494945 55.3199048,5.87494945 Z M30.4169196,5.87038732 C29.3911546,5.87038732 28.4960414,6.09932221 27.7551912,6.52670391 C27.0143691,6.92563939 26.5691064,7.44721564 26.369634,8.13103336 C26.85404,8.01708513 27.6045196,7.98520857 28.63028,7.98518523 C30.7388263,7.98520857 32.813747,8.25395417 34.8652877,8.82381199 C34.6943292,8.11148971 34.1887028,7.44527878 33.3338823,6.81840017 C32.4790792,6.19155657 31.4996915,5.87038732 30.4169196,5.87038732 Z M90.104976,5.87038732 C89.0792109,5.87038732 88.1840989,6.09932221 87.4432476,6.52670391 C86.7024184,6.92563939 86.2571616,7.44721564 86.0576903,8.13103336 C86.5420998,8.01708513 87.292576,7.98520857 88.3183364,7.98518523 C90.4268803,7.98520857 92.5018092,8.25395417 94.553344,8.82381199 C94.3823867,8.11148971 93.8767592,7.44527878 93.0219386,6.81840017 C92.1671332,6.19155657 91.187749,5.87038732 90.104976,5.87038732 Z M7.25594457,0 C9.79092512,0 11.7907095,0.786284782 13.27218,2.33357011 C14.7536598,3.84798711 15.6376139,5.84423966 15.9339084,8.31334353 C11.851625,6.99648658 8.09454916,6.30794338 4.70360226,6.30793171 C3.15629826,6.30794338 1.58025751,6.40210293 0,6.59962798 C0.395080421,2.18813036 2.84445162,0 7.25594457,0 Z M7.6205649,1.96894978 C6.43539598,1.96894978 5.41373215,2.24085737 4.55775413,2.73465248 C3.70180528,3.19557925 3.18389273,3.80412766 2.95342467,4.59421616 C3.5131093,4.46255613 4.35706243,4.411941 5.54222902,4.411906 C7.97844588,4.411941 10.3913585,4.73796408 12.7617116,5.39638089 C12.5641888,4.57335404 11.9627287,3.78710427 10.9750719,3.06281077 C9.98742923,2.33855229 8.87159884,1.96894978 7.6205649,1.96894978 Z" id="wikipedia-wordmark-th" fill="#000000" fill-rule="nonzero"></path>
    </g>
</svg>

<svg xmlns="http://www.w3.org/2000/svg" width="120" height="31"><path fill="#000" fill-rule="nonzero" d="M73.625 13.527v10.975c.143-.056.396-.072.766-.072.883 0 1.634.32 2.26.948.656.626.985 1.385.985 2.297 0 .911-.329 1.67-.984 2.297-.627.627-1.378.948-2.261.948-.969 0-1.788-.33-2.443-.985-.596-.595-.922-1.333-.976-2.211l-.008-.268V13.527h2.661Zm36.092-3.09c.988 0 1.837.302 2.528.928.692.592 1.054 1.372 1.054 2.36 0 .889-.344 1.659-.97 2.318-.625.658-1.423 1.011-2.444 1.011-.527 0-.995-.088-1.39-.253.246 1.174.776 1.777 1.6 1.848l.17.007h3.498V21.1h-3.498c-.527 0-.936.213-1.265.674-.288.404-.46.873-.497 1.382l-.009.22v2.276c0 1.778 1.415 2.655 4.215 2.655 2.731 0 4.114-.815 4.21-2.468l.004-.187V10.817H120v14.708c0 3.59-2.417 5.395-7.291 5.395-4.723 0-7.17-1.718-7.287-5.135l-.004-.26V23.25c0-1.58.672-2.67 2.023-3.329-1.515-1.021-2.276-2.533-2.276-4.51 0-1.449.432-2.618 1.222-3.54.824-.955 1.913-1.433 3.33-1.433Zm-102.184.028.264-.009.538.009c2.173 0 3.897.383 5.214 1.24 1.502.969 2.29 2.44 2.364 4.39l.006.313v10.501c0 1.152-.373 2.123-1.13 2.88-.757.725-1.652 1.094-2.771 1.094-1.054 0-1.974-.37-2.698-1.094-.725-.724-1.058-1.604-1.058-2.625 0-1.053.333-1.9 1.058-2.625.724-.724 1.644-1.13 2.698-1.13.217 0 .406.014.572.033l.303.04v-7.256c0-2.107-1.529-3.173-4.558-3.173-1.25 0-2.32.414-3.208 1.204-.795.703-1.246 1.634-1.306 2.791l-.007.271H.897c.099-2.172.761-3.883 2.078-5.068 1.181-1.066 2.718-1.656 4.558-1.786Zm40.181 2.734c.969 0 1.78.33 2.407.985.595.596.922 1.333.976 2.211l.008.268v6.345c0 .74-.168 2.241-.51 4.52l.813-3.295c.09-.345.156-.588.2-.731l.044-.13 2.99-9.115h1.64l3.01 9.183c.097.34.437 1.686 1.038 4.089l-.165-1.134c-.215-1.534-.328-2.614-.344-3.249l-.001-9.619h2.661v17.065h-2.99l-4.047-13.273-4.12 13.273h-2.88V19.58l-.397.076c-.122.02-.233.034-.333.033a3.12 3.12 0 0 1-2.297-.948 3.334 3.334 0 0 1-.948-2.37c0-.883.321-1.633.948-2.26.627-.627 1.385-.912 2.297-.912Zm42.004 0 .24-.008.49.008c1.966 0 3.559.506 4.813 1.532 1.26 1.046 1.924 2.444 1.998 4.22l.007.337v11.304h-2.625v-11.45c0-1.082-.414-1.977-1.24-2.661-.798-.684-1.77-1.021-2.88-1.021a4.455 4.455 0 0 0-3.136 1.24c-.883.797-1.313 1.74-1.313 2.88 0 .712.237 1.752.693 3.063.484 1.31.73 2.298.73 2.953 0 .2-.053.46-.11.803.826-1.34 1.782-2.48 2.807-3.391-.797-.057-1.44-.379-1.896-.948-.427-.485-.62-1.075-.62-1.787 0-.74.261-1.391.803-1.933.57-.57 1.236-.838 2.005-.838.77 0 1.428.269 1.97.838a2.64 2.64 0 0 1 .801 1.933c0 1.282-.642 2.699-1.896 4.266l-.835 1.039c-1.212 1.524-1.893 2.473-2.082 2.826-.374.648-.596 1.292-.645 1.92l-.011.268h-2.698c.028-1.055.036-2.034.036-2.917 0-1.539-.168-2.71-.51-3.537-.257-.741-.51-1.491-.766-2.26-.256-.799-.365-1.517-.365-2.116 0-1.937.667-3.514 2.006-4.74 1.197-1.072 2.596-1.689 4.23-1.823Zm-58.748-.015c2.052 0 3.661.556 4.83 1.667 1.196 1.083 1.795 2.564 1.795 4.445v11.283h-2.65V19.253c0-1.168-.356-2.094-1.069-2.778-.712-.684-1.652-1.026-2.82-1.026-1.71 0-3.007.727-3.89 2.18 1.34.256 2.294.898 2.864 1.923-1.453.855-2.18 1.88-2.18 3.078v7.95H25.2v-8.121c0-1.197.584-2.137 1.752-2.821-.712-.485-1.581-.656-2.607-.513.057-1.767.741-3.22 2.052-4.36 1.197-1.054 2.721-1.581 4.573-1.581Zm43.421 13.032c-.399 0-.736.153-1.02.438a1.398 1.398 0 0 0-.438 1.02c0 .4.152.737.437 1.022.285.285.622.437 1.021.437.399 0 .736-.152 1.02-.437.286-.285.438-.622.438-1.021 0-.4-.152-.736-.437-1.021a1.398 1.398 0 0 0-1.021-.438Zm-62.373-.766c-.461 0-.91.182-1.24.511-.329.33-.474.706-.474 1.167 0 .46.145.874.474 1.203.33.33.779.474 1.24.474.46 0 .837-.145 1.167-.474.329-.33.474-.742.474-1.203 0-.461-.145-.838-.474-1.167-.33-.33-.706-.51-1.167-.51Zm78.466-6.453c-.37 0-.691.144-.948.4-.228.229-.328.505-.328.876 0 .37.1.691.328.948.257.228.578.328.948.328s.647-.1.875-.328c.257-.257.401-.578.401-.948 0-.318-.106-.566-.298-.774l-.103-.101a1.11 1.11 0 0 0-.875-.401Zm-42.77-4.011c-.399 0-.736.153-1.02.437a1.398 1.398 0 0 0-.438 1.021c0 .4.152.736.437 1.021.285.285.622.438 1.021.438.4 0 .736-.153 1.021-.438.285-.285.438-.622.438-1.02 0-.4-.153-.737-.438-1.022a1.398 1.398 0 0 0-1.02-.437Zm62.171-2.779c-.46 0-.841.125-1.138.422a1.557 1.557 0 0 0-.463 1.138c0 .46.167.841.463 1.138.297.296.677.463 1.138.463.461 0 .842-.167 1.138-.463.297-.297.422-.677.422-1.138 0-.461-.125-.842-.422-1.138-.296-.297-.677-.422-1.138-.422ZM59.841 2.885h2.553v7.876l.109.583c-3.533-1.14-6.764-1.713-9.699-1.713-1.34 0-2.716.084-4.084.255.342-3.818 2.417-5.725 6.235-5.725 1.897 0 3.455.498 4.652 1.476l.234.201V2.885Zm37.374-.004v7.875l.073.584c-3.533-1.14-6.764-1.714-9.699-1.714-1.34 0-2.68.084-4.047.255.342-3.818 2.417-5.724 6.235-5.724 1.896 0 3.422.497 4.615 1.475l.234.202V2.88h2.59ZM30.09 4.157c2.194 0 3.932.666 5.214 2.005 1.282 1.31 2.04 3.04 2.297 5.178-3.533-1.14-6.764-1.714-9.699-1.714-1.34 0-2.68.084-4.047.255.342-3.818 2.417-5.724 6.235-5.724Zm25.23 1.718c-1.025 0-1.92.229-2.66.656-.742.4-1.223.92-1.423 1.605.485-.114 1.272-.146 2.297-.146 2.109 0 4.184.269 6.235.838-.17-.712-.713-1.378-1.568-2.005a4.723 4.723 0 0 0-2.88-.948ZM30.418 5.87c-1.026 0-1.921.23-2.662.657-.74.399-1.186.92-1.385 1.604.484-.114 1.235-.146 2.26-.146 2.109 0 4.184.269 6.235.839-.17-.713-.676-1.379-1.531-2.006a4.829 4.829 0 0 0-2.917-.948Zm59.688 0c-1.026 0-1.92.23-2.662.657-.74.399-1.186.92-1.385 1.604.484-.114 1.235-.146 2.26-.146 2.109 0 4.184.269 6.235.839-.17-.713-.676-1.379-1.531-2.006a4.829 4.829 0 0 0-2.917-.948ZM7.255 0c2.536 0 4.536.786 6.017 2.334 1.482 1.514 2.366 3.51 2.662 5.98-4.082-1.318-7.84-2.006-11.23-2.006A37.98 37.98 0 0 0 0 6.6C.395 2.188 2.844 0 7.256 0Zm.366 1.969c-1.186 0-2.207.272-3.063.766-.856.46-1.374 1.07-1.605 1.86.56-.132 1.404-.183 2.59-.183 2.435 0 4.848.326 7.219.984-.198-.823-.8-1.609-1.787-2.333a5.532 5.532 0 0 0-3.354-1.094Z"/></svg>
